X: 25328
T: Mannin Veg Veen
R: reel
M: 4/4
K: Dmajor
d2|a2 a2 agfe|d2 dc A2 BA|a3b a2 d2|g2 g4 fg|
a2 a2 gfed|d2 dc a,2 cd|e2 a2 gf e2|d2 d4||

